X:27
T:What if a day
T:What if a day or a moneth or a year
C:anon., words: Thomas Campian?, arr. Frank Nordberg
O:England
B:"Jane Pickeringe's Lute Book" no. 27
R:Air
Z:Transcribed by Frank Nordberg - http://www.musicaviva.com
F:http://abc.musicaviva.com/tunes/england/pickeringe-27/pickeringe-27-gtr2.abc
V:1 Program 1 24 up %Classical guitar
V:2 Program 1 24 merge down %Classical guitar
V:3 Program 1 24 merge down %Classical guitar
M:C
L:1/8
Q:1/4=80
K:Am -8va % Cm with Capo on third fret
V:1
"^Capo III"A2^GA B2AB|c2dc B4|c2Bc d2cd|e2e2 d2c2|B4 A4:|
V:2
E4 ^G2z2|A4[E4^G4]|A2x2 G4|G4 x4|x4 E4:|
V:3
A,4 E,4|A,4E,4|A,4 G,4|C4 G,2A,2|E2E,2 A,4:|
%
V:1
|:e2e2 d2d2|c2c2 B4|c2d2 e2g2|^f4 e4:|
V:2
|:c4 G2G2|A2A2 [E4^G4]|A4 x4|[^D4B4] [B,4E4^G4B4]:|
V:3
|:C4 G,2G,2|A,2A,2 E,4|A,4 C2E2|B,4 E,4:|
%
V:1
|:c2d2 e4|B2c2 d4|A2B2 c2dc|B4 A4:|
V:2
|:A2x2 G4|G2x2 G4|E4 A4|x4 E4:|
V:3
|:A,2B,2 C4|G,2A2 B,4|A,4 A,4|E2E,2 A4:|
W:
W:What if a day, or a month, or a yeare,
W:Crown thy delights with a thousand sweet contentlings?
W:Cannot a chance of a night or an howre
W:Crosse thy desires with as many sad tormentings?
W:  Fortune, honor, beauty, youth
W:  are but blossoms dying;
W:  Wanton pleasure, doating love,
W:  Are but shadowes flying,
W:All our joyes are but toyes,
W:Idle thoughts deceiving;
W:None have power of an howre
W:In their lives bereaving.
W:
W:Earthes but a point to the world, and a man
W:Is but a point to the worlds compared centure:
W:Shall then a point of a point be so vaine
W:As to triumph in a seely points adventure?
W:  All is hassard that we have;
W:  There is nothing biding;
W:  Dayes of pleasure are like streames
W:  Through Faire meadowes gliding.
W:Weale and woe, time doth goe,
W:Time is never turning:
W:Secret fates guide our states,
W:Both in mirth and mourning.
W:
W:
W:  From Musica Viva - http://www.musicaviva.com
W:  the Internet center for free sheet music downloads.

